SVG_Azure_Grouped/IoT/IoT Hub Workbook.svg

<?xml version="1.0" encoding="UTF-8" standalone="no"?>
<!-- Generated by Microsoft Visio, SVG Export IoT Hub Workbook.svg Page-1 -->

<svg
   xmlns:dc="http://purl.org/dc/elements/1.1/"
   xmlns:cc="http://creativecommons.org/ns#"
   xmlns:rdf="http://www.w3.org/1999/02/22-rdf-syntax-ns#"
   xmlns:svg="http://www.w3.org/2000/svg"
   xmlns="http://www.w3.org/2000/svg"
   xmlns:sodipodi="http://sodipodi.sourceforge.net/DTD/sodipodi-0.dtd"
   xmlns:inkscape="http://www.inkscape.org/namespaces/inkscape"
   width="0.78740031in"
   height="0.78741515in"
   viewBox="0 0 56.69273 56.694201"
   xml:space="preserve"
   class="st4"
   version="1.1"
   id="svg45"
   sodipodi:docname="IoT Hub Workbook.svg"
   style="font-size:12px;overflow:visible;color-interpolation-filters:sRGB;fill:none;fill-rule:evenodd;stroke-linecap:square;stroke-miterlimit:3"
   inkscape:version="0.92.5 (2060ec1f9f, 2020-04-08)"><metadata
   id="metadata49"><rdf:RDF><cc:Work
       rdf:about=""><dc:format>image/svg+xml</dc:format><dc:type
         rdf:resource="http://purl.org/dc/dcmitype/StillImage" /></cc:Work></rdf:RDF></metadata><sodipodi:namedview
   pagecolor="#ffffff"
   bordercolor="#666666"
   borderopacity="1"
   objecttolerance="10"
   gridtolerance="10"
   guidetolerance="10"
   inkscape:pageopacity="0"
   inkscape:pageshadow="2"
   inkscape:window-width="640"
   inkscape:window-height="480"
   id="namedview47"
   showgrid="false"
   inkscape:zoom="1.4193119"
   inkscape:cx="37.795128"
   inkscape:cy="37.786194"
   inkscape:window-x="0"
   inkscape:window-y="0"
   inkscape:window-maximized="0"
   inkscape:current-layer="svg45" />
	<style
   type="text/css"
   id="style2">
	<![CDATA[
		.st1 {fill:url(#grad0-6);stroke:none;stroke-linecap:butt;stroke-width:34}
		.st2 {fill:url(#grad0-10);stroke:none;stroke-linecap:butt;stroke-width:34}
		.st3 {fill:url(#grad0-14);stroke:none;stroke-linecap:butt;stroke-width:34}
		.st4 {fill:none;fill-rule:evenodd;font-size:12px;overflow:visible;stroke-linecap:square;stroke-miterlimit:3}
	]]>
	</style>

	<defs
   id="Patterns_And_Gradients">
		<linearGradient
   id="grad0-6"
   x1="0"
   y1="68.02"
   x2="56.69"
   y2="68.02"
   gradientUnits="userSpaceOnUse">
			<stop
   offset="0"
   stop-color="#0078d4"
   stop-opacity="1"
   id="stop4" />
			<stop
   offset="1"
   stop-color="#289bf2"
   stop-opacity="1"
   id="stop6" />
		</linearGradient>
		<linearGradient
   id="grad0-10"
   x1="-0.12807643"
   y1="81.235242"
   x2="52.377237"
   y2="81.235242"
   gradientTransform="scale(1.0724124,0.93247707)"
   gradientUnits="userSpaceOnUse">
			<stop
   offset="0"
   stop-color="#00ccf9"
   stop-opacity="1"
   id="stop9" />
			<stop
   offset="1"
   stop-color="#0095e6"
   stop-opacity="1"
   id="stop11" />
		</linearGradient>
		<linearGradient
   id="grad0-14"
   x1="0"
   y1="103.2448"
   x2="42.029475"
   y2="103.2448"
   gradientTransform="scale(1.1648968,0.85844517)"
   gradientUnits="userSpaceOnUse">
			<stop
   offset="0"
   stop-color="#7cecff"
   stop-opacity="1"
   id="stop14" />
			<stop
   offset="1"
   stop-color="#50e6ff"
   stop-opacity="1"
   id="stop16" />
		</linearGradient>
	</defs>
	<g
   id="g43"
   transform="translate(-34.000441,-34.0001)">
		<title
   id="title20">Page-1</title>
		<g
   id="group20504-1"
   transform="translate(34,-34.0157)">
			<title
   id="title22">IoT Hub Workbook.20504</title>
			<g
   id="group20505-2">
				<title
   id="title24">Sheet.20505</title>
				<g
   id="shape20506-3">
					<title
   id="title26">Sheet.20506</title>
					<path
   d="M 24.48,79.61 0,104.09 v 15.47 a 5.15591,5.15591 -180 0 0 5.15,5.15 h 46.39 a 5.15591,5.15591 -180 0 0 5.15,-5.15 V 73.17 A 5.15591,5.15591 -180 0 0 51.54,68.02 H 48.96 L 30.92,86.05 Z"
   class="st1"
   id="path28"
   inkscape:connector-curvature="0"
   style="fill:url(#grad0-6);stroke:none;stroke-width:34;stroke-linecap:butt" />
				</g>
				<g
   id="shape20507-7"
   transform="translate(0.523132)">
					<title
   id="title31">Sheet.20507</title>
					<path
   d="M 23.96,95.07 1.32,117.71 a 3.76063,3.76063 -180 0 0 -1.2,4.34 5.14961,5.14961 -180 0 0 4.51,2.66 h 46.39 a 5.15591,5.15591 -180 0 0 5.15,-5.15 V 75.75 L 30.4,101.51 Z"
   class="st2"
   id="path33"
   inkscape:connector-curvature="0"
   style="fill:url(#grad0-10);stroke:none;stroke-width:34;stroke-linecap:butt" />
				</g>
				<g
   id="shape20508-11"
   transform="translate(0,-20.6142)">
					<title
   id="title36">Sheet.20508</title>
					<path
   d="M 30.92,106.67 48.96,88.63 H 5.15 A 5.15591,5.15591 -180 0 0 0,93.78 v 30.93 l 24.48,-24.48 z"
   class="st3"
   id="path38"
   inkscape:connector-curvature="0"
   style="fill:url(#grad0-14);stroke:none;stroke-width:34;stroke-linecap:butt" />
				</g>
			</g>
		</g>
	</g>
</svg>

<?xml version="1.0" encoding="UTF-8" standalone="no"?>
<!DOCTYPE svg PUBLIC "-//W3C//DTD SVG 1.1//EN" "http://www.w3.org/Graphics/SVG/1.1/DTD/svg11.dtd">
<!-- Generated by Microsoft Visio, SVG Export IoT Hub Workbook.svg Page-1 -->
<svg xmlns="http://www.w3.org/2000/svg" xmlns:xlink="http://www.w3.org/1999/xlink" xmlns:ev="http://www.w3.org/2001/xml-events"
		width="1.73185in" height="1.73206in" viewBox="0 0 124.693 124.709" xml:space="preserve" color-interpolation-filters="sRGB"
		class="st4">
	<style type="text/css">
	<![CDATA[
		.st1 {fill:url(#grad0-6);stroke:none;stroke-linecap:butt;stroke-width:34}
		.st2 {fill:url(#grad0-10);stroke:none;stroke-linecap:butt;stroke-width:34}
		.st3 {fill:url(#grad0-14);stroke:none;stroke-linecap:butt;stroke-width:34}
		.st4 {fill:none;fill-rule:evenodd;font-size:12px;overflow:visible;stroke-linecap:square;stroke-miterlimit:3}
	]]>
	</style>

	<defs id="Patterns_And_Gradients">
		<linearGradient id="grad0-6" x1="0" y1="0" x2="1" y2="0" gradientTransform="rotate(-121.48146355827 0.5 0.5)">
			<stop offset="0" stop-color="#0078d4" stop-opacity="1"/>
			<stop offset="1" stop-color="#289bf2" stop-opacity="1"/>
		</linearGradient>
		<linearGradient id="grad0-10" x1="0" y1="0" x2="1" y2="0" gradientTransform="rotate(65.416554844273 0.5 0.5)">
			<stop offset="0" stop-color="#00ccf9" stop-opacity="1"/>
			<stop offset="1" stop-color="#0095e6" stop-opacity="1"/>
		</linearGradient>
		<linearGradient id="grad0-14" x1="0" y1="0" x2="1" y2="0" gradientTransform="rotate(75.680747519145 0.5 0.5)">
			<stop offset="0" stop-color="#7cecff" stop-opacity="1"/>
			<stop offset="1" stop-color="#50e6ff" stop-opacity="1"/>
		</linearGradient>
	</defs>
	<g>
		<title>Page-1</title>
		<g id="group20049-1" transform="translate(34,-34.0157)">
			<title>IoT Hub Workbook.20049</title>
			<g id="group20050-2">
				<title>Sheet.20050</title>
				<g id="shape20051-3">
					<title>Sheet.20051</title>
					<path d="M24.48 79.61 L0 104.09 L0 119.56 A5.15591 5.15591 -180 0 0 5.15 124.71 L51.54 124.71 A5.15591 5.15591
								 -180 0 0 56.69 119.56 L56.69 73.17 A5.15591 5.15591 -180 0 0 51.54 68.02 L48.96 68.02 L30.92 86.05
								 L24.48 79.61 Z" class="st1"/>
				</g>
				<g id="shape20052-7" transform="translate(0.523132,-2.70006E-13)">
					<title>Sheet.20052</title>
					<path d="M23.96 95.07 L1.32 117.71 A3.76063 3.76063 -180 0 0 0.12 122.05 A5.14961 5.14961 -180 0 0 4.63 124.71
								 L51.02 124.71 A5.15591 5.15591 -180 0 0 56.17 119.56 L56.17 75.75 L30.4 101.51 L23.96 95.07 Z"
							class="st2"/>
				</g>
				<g id="shape20053-11" transform="translate(2.79776E-13,-20.6142)">
					<title>Sheet.20053</title>
					<path d="M30.92 106.67 L48.96 88.63 L5.15 88.63 A5.15591 5.15591 -180 0 0 0 93.78 L0 124.71 L24.48 100.23 L30.92
								 106.67 Z" class="st3"/>
				</g>
			</g>
		</g>
	</g>
</svg>
